X:701
T:Ned Kendall's
C:E. Kendall
S:Bruce & Emmett's Drummers and Fifers Guide (1862), p. 70
M:2/4
L:1/16
Q:1/4=100
K:A
%%MIDI program 72
%%MIDI transpose 8
%%MIDI ratio 3 1
(3EFG|SA2{B}AG AECE|A2Bc dBGB|ABcd efec|dcBA GBGE|A2{B}AG AECE|
A2Bc dBGB|ABcd efec|dBGB "^fine"A2:|cd|eAMA2 eAea|fBMB2 fBfg|
agfe dcBA|GABG E2cd|eAMA2 eAea|fBMB2 fBfg|agfe ^defd|
e^def e2c=d|eAMA2 eAea|fBMB2 fBfg|agfe dcBA|GABG E2ED|
CEAc DFBd|EAce FAdf|eaga edcd|A2{ABcdefg}ae fd"^D.S. al fine"BG||
